dist/img/icon/ankara-tower.svg

<svg width="94" height="200" viewBox="0 0 94 200" fill="none" xmlns="http://www.w3.org/2000/svg">
<g clip-path="url(#clip0_67_14373)">
<path d="M36.5248 184.614H41.1584H52.7525H57.396V198.287H52.7525H41.1584H36.5248V184.614ZM1.73267 172.643H29.5644H41.1584H52.7525H64.3564H92.1782V198.287H64.3564H59.1287V184.614H64.3564H78.2673V182.901H64.3564H52.7525H41.1584H29.5644H15.6535V184.614H29.5644H34.7822V198.287H29.5644H1.73267V172.643ZM30.2079 165.406L30.8614 165.01L31.5347 164.634L32.2079 164.267L32.8911 163.931L33.5743 163.604L34.2772 163.287L34.9802 163L35.703 162.723L36.4158 162.455L37.1485 162.218L37.8812 161.99L38.6139 161.782L39.3564 161.594L40.1089 161.416L40.8614 161.267L41.6139 161.129L42.3663 161.01L43.1287 160.911L43.8416 160.832L44.6535 160.762L45.4257 160.713L46.1881 160.693L46.9604 160.683L47.7228 160.693L48.495 160.713L49.2574 160.762L50.0198 160.822L50.7822 160.911L51.5446 161.01L52.3069 161.129L53.0594 161.267L53.8119 161.416L54.5545 161.594L55.297 161.782L56.0396 161.99L56.7723 162.218L57.495 162.455L58.2178 162.723L58.9307 163L59.6337 163.287L60.3366 163.604L61.0297 163.931L61.7129 164.267L62.3861 164.634L63.0495 165.01L63.703 165.406L64.3564 165.812H51.8911H42.0297H29.5644L30.2079 165.406ZM46.1485 158.98L45.3366 159.01L44.5347 159.059L43.7228 159.129L42.9208 159.208L42.1188 159.317L41.3168 159.445L40.5248 159.584L39.7327 159.752L38.9406 159.931L38.1584 160.129L37.3762 160.356L36.604 160.594L35.8416 160.842L35.0792 161.119L34.3267 161.416L33.5842 161.723L32.8416 162.049L32.1089 162.396L31.396 162.762L30.6832 163.139L29.9802 163.535L29.2871 163.95L26.3465 165.812H5.21782V170.941H0V200H93.9208V170.941H88.703V165.812H81.7426V167.515H86.9604V170.941H62.6139H51.8911H42.0297H31.3069H6.9505V167.515H31.3069H42.0297H51.8911H62.6139H64.3564V165.812V163.782L63.9406 163.535L63.2376 163.139L62.5248 162.762L61.802 162.396L61.0693 162.049L60.3366 161.723L59.5941 161.416L58.8317 161.119L58.0792 160.842L57.3069 160.594L56.5347 160.356L55.7624 160.129L54.9802 159.931L54.1881 159.752L53.396 159.584L52.5941 159.445L51.802 159.317L51 159.208L50.1881 159.129L49.3861 159.059L48.5743 159.01L47.7723 158.98L46.9604 158.97L46.1485 158.98Z" fill="#3271B2"/>
<path d="M81.7426 167.515H64.3564V165.812V163.782L64.6238 163.951L66.0891 164.871V165.812H67.5743H69.5743H71.3069H74.7921H76.5248H80.0099H81.7426V167.515Z" fill="#3271B2"/>
<path d="M62.6139 49.5644H68.703H77.396H83.4852V54.6931H77.396H68.703H62.6139V49.5644ZM59.1386 46.1485H67.8317H78.2673H86.9604V47.8614H78.2673H67.8317H59.1386V46.1485ZM66.0792 44.1287L66.0495 43.8119L66 43.505L65.9406 43.198L65.8515 42.901L65.7426 42.604L65.6238 42.3168L65.4852 42.0396L65.3267 41.7624L65.1485 41.505L64.9604 41.2475L64.7525 41.0198H69.5743H76.5248H81.3465L81.1386 41.2475L80.9505 41.505L80.7723 41.7624L80.6139 42.0396L80.4752 42.3168L80.3564 42.604L80.2475 42.901L80.1584 43.198L80.0891 43.505L80.0495 43.8119L80.0198 44.1287L80.0099 44.4356H76.5248H69.5743H66.0891L66.0792 44.1287ZM53.9208 35.8911H66.6733H79.4257H92.1782V39.3069H79.4257H66.6733H53.9208V35.8911ZM53.9208 33.5644L53.9604 32.9505L54.0099 32.3366L54.0792 31.7327L54.1683 31.1188L54.2376 30.7624H66.7822H79.3168H91.8614L91.9307 31.1188L92.0198 31.7327L92.0891 32.3366L92.1386 32.9505L92.1683 33.5644L92.1782 34.1881H79.4257H66.6733H53.9208V33.5644ZM60.3267 26.1089L61.505 26L62.6832 25.802L63.8416 25.5347L64.9802 25.198L67.2079 24.3663L67.6535 24.2277L68.3465 24.0297L69.505 23.7624L70.6733 23.5644L71.8614 23.4554L73.0495 23.4158L74.2376 23.4554L75.4257 23.5644L76.5941 23.7624L77.7525 24.0297L78.4456 24.2277L78.8911 24.3663L81.1188 25.198L82.2574 25.5347L83.4158 25.802L84.5941 26L85.7723 26.1089L86.9604 26.1485L88.1485 26.1089L89.3366 26L90.198 25.8515L90.4752 26.4257L90.7228 26.9901L90.9604 27.5545L91.1683 28.1386L91.3564 28.7228L91.4555 29.0594H79.1782H66.9208H54.6436L54.7426 28.7228L54.9307 28.1386L55.1386 27.5545L55.3762 26.9901L55.6238 26.4257L55.8911 25.8614L56.7624 26L57.9406 26.1089L59.1386 26.1485L60.3267 26.1089ZM58.0594 24.4059L56.9901 24.297L56.7921 24.2673L57.1386 23.7327L57.4951 23.2277L57.8713 22.7327L58.2574 22.2574L58.6634 21.7822L59.0792 21.3267L59.5248 20.8911L59.9703 20.4554L60.4356 20.0495L60.9109 19.6436L61.4059 19.2673L61.901 18.901L62.4158 18.5446L62.9505 18.2178L63.4852 17.901L64.0297 17.604L64.5842 17.3168L65.1485 17.0594L65.7228 16.8119L66.3069 16.5842L66.901 16.3762L67.4951 16.1881L68.099 16.0198L68.703 15.8713L69.3168 15.7426L69.9307 15.6337L70.5545 15.5446L71.1485 15.4752L71.802 15.4158L72.4257 15.3861L73.0495 15.3762L73.6733 15.3861L74.297 15.4158L74.9208 15.4653L75.5446 15.5446L76.1683 15.6337L76.7822 15.7426L77.396 15.8713L78 16.0198L78.604 16.1881L79.198 16.3762L79.7921 16.5842L80.3663 16.8119L80.9406 17.0594L81.5149 17.3168L82.0693 17.604L82.6139 17.901L83.1485 18.2178L83.6832 18.5446L84.198 18.901L84.6931 19.2673L85.1881 19.6436L85.6634 20.0495L86.1287 20.4554L86.5743 20.8911L87.0099 21.3267L87.4356 21.7822L87.8416 22.2574L88.2277 22.7327L88.604 23.2277L88.9604 23.7327L89.297 24.2574L89.1089 24.297L88.0396 24.4059L86.9604 24.4356L85.8911 24.4059L84.8218 24.297L83.7525 24.1287L82.7129 23.8812L81.6832 23.5743L79.4554 22.7525L78.2079 22.3762L77.9901 22.3267L76.9406 22.0792L75.6535 21.8713L74.3564 21.7426L73.0495 21.703L71.7426 21.7426L70.4455 21.8713L69.1584 22.0792L68.1089 22.3267L67.8911 22.3762L66.6436 22.7525L64.4158 23.5743L63.3861 23.8812L62.3366 24.1287L61.2772 24.297L60.2079 24.4059L59.1386 24.4356L58.0594 24.4059ZM73.0495 8.54455L75.7723 13.8416L75.099 13.7723L74.4158 13.7129L73.7327 13.6832L73.0495 13.6733L72.3663 13.6832L71.6832 13.7129L71 13.7723L70.3267 13.8416L73.0495 8.54455ZM72.1782 0V6.44555L68.1782 14.2376L67.6436 14.3663L66.9901 14.5545L66.3366 14.7624L65.6931 14.9802L65.0594 15.2277L64.4356 15.4951L63.8218 15.7822L63.2079 16.0891L62.6139 16.4158L62.0297 16.7624L61.4554 17.1287L60.8911 17.505L60.3465 17.9109L59.8119 18.3267L59.2871 18.7624L58.7822 19.2079L58.2871 19.6733L57.8119 20.1584L57.3564 20.6535L56.9109 21.1683L56.4852 21.6931L56.0792 22.2376L55.6931 22.7822L55.3267 23.3465L54.9703 23.9307L54.6436 24.5149L54.3267 25.1089L54.0396 25.7129L53.7624 26.3366L53.5149 26.9604L53.2871 27.5941L53.0792 28.2277L52.8911 28.8713L52.7228 29.5248L52.5743 30.1782L52.4554 30.8416L52.3564 31.505L52.2772 32.1683L52.2178 32.8416L52.1881 33.5149L52.1782 34.1881V41.0198H60.8119L61.3267 41.0495L61.7723 41.1386L62.2079 41.2871L62.6139 41.4852L62.9901 41.7327L63.3267 42.0297L63.6337 42.3564L63.8812 42.7327L64.0792 43.1287L64.2277 43.5545L64.3168 43.9901L64.3465 44.4356H57.396V49.5644H60.8713V56.4059H64.3564V163.782L64.6238 163.951L66.0891 164.871V56.4059H69.5743H76.5248H80.0099V165.812H81.7426V56.4059H85.2277V49.5644H88.703V44.4356H81.7525L81.7822 43.9901L81.8713 43.5545L82.0099 43.1287L82.2178 42.7327L82.4653 42.3564L82.7624 42.0297L83.1089 41.7327L83.4852 41.4852L83.8911 41.2871L84.3267 41.1386L84.7723 41.0495L85.2772 41.0198H93.9208V34.1881L93.9109 33.5149L93.8812 32.8416L93.8218 32.1683L93.7426 31.505L93.6436 30.8416L93.5248 30.1782L93.3762 29.5248L93.2079 28.8713L93.0198 28.2277L92.8119 27.5941L92.5842 26.9604L92.3366 26.3366L92.0594 25.7129L91.7723 25.1089L91.4555 24.5149L91.1287 23.9307L90.7723 23.3465L90.4059 22.7822L90.0099 22.2376L89.604 21.6931L89.1881 21.1683L88.7426 20.6535L88.2871 20.1584L87.8119 19.6733L87.3168 19.2079L86.8119 18.7624L86.2871 18.3267L85.7525 17.9109L85.2079 17.505L84.6436 17.1287L84.0693 16.7624L83.4852 16.4158L82.8911 16.0891L82.2772 15.7822L81.6634 15.4951L81.0396 15.2277L80.4059 14.9802L79.7624 14.7624L79.1089 14.5545L78.4554 14.3663L77.9208 14.2376L73.9208 6.44555V0H72.1782Z" fill="#3271B2"/>
<path d="M69.5742 165.812V63.2476H76.5247V165.812H74.792V64.9505H71.3069V165.812H69.5742Z" fill="#3271B2"/>
<path d="M66.0889 164.871L67.574 165.812H66.0889V164.871Z" fill="#474B4A"/>
<path d="M1.73291 172.644V198.287H29.5646V184.614H15.6438V182.901H29.5646V172.644H1.73291Z" fill="#D0ECF6"/>
<path d="M31.3082 167.521H6.95703V170.94H31.3082V167.521Z" fill="#D0ECF6"/>
<path d="M86.9603 170.93V167.515H81.7425H64.3563H62.6138V170.93H86.9603Z" fill="#F5EFEB"/>
<path d="M69.574 63.2473V56.4058H66.0889V99.1384H69.574V63.2473Z" fill="#D0ECF6"/>
<path d="M67.574 165.812H69.574V99.1387H66.0889V164.871L67.574 165.812Z" fill="#D0ECF6"/>
<path d="M59.1383 184.615H36.5264V198.29H59.1383V184.615Z" fill="#00AEEF"/>
<path d="M68.7051 49.5728H62.6172V54.7011H68.7051V49.5728Z" fill="#D0ECF6"/>
<path d="M86.9679 46.1538H78.271V47.8632H86.9679V46.1538Z" fill="#E1DDD9"/>
<path d="M67.8351 46.1538H59.1382V47.8632H67.8351V46.1538Z" fill="#D0ECF6"/>
<path d="M78.2715 46.1538H67.8354V47.8632H78.2715V46.1538Z" fill="#CECCCA"/>
<path d="M66.6734 33.4949L66.6932 32.8018L66.713 32.1186L66.7427 31.4256L66.7823 30.7622H54.2377L54.1684 31.1186L54.0793 31.7325L54.01 32.3365L53.9605 32.9503L53.9209 33.5642V34.1879H66.6734V33.4949Z" fill="#D0ECF6"/>
<path d="M78.5641 24.8513L78.6829 25.4751L78.7918 26.1087L78.8909 26.7523L78.98 27.3959L79.0691 28.0592L79.1384 28.7226L79.178 29.0592H91.4552L91.3562 28.7226L91.1681 28.1384L90.9503 27.5543L90.7225 26.9899L90.475 26.4256L90.2077 25.8612L89.3364 25.9899L88.1483 26.1087L86.9602 26.1483L85.772 26.1087L84.5938 25.9899L83.4156 25.8018L82.2572 25.5345L81.1186 25.1978L78.8909 24.3662L78.4453 24.2275L78.5641 24.8513Z" fill="#00AEEF"/>
<path d="M66.9505 28.7229L67.0297 28.0596L67.1089 27.3962L67.2079 26.7526L67.3069 26.1091L67.4158 25.4754L67.5247 24.8517L67.6535 24.2378L67.2079 24.3665L64.9802 25.1982L63.8416 25.5348L62.6832 25.8021L61.5049 25.9903L60.3267 26.1091L59.1287 26.1487L57.9406 26.1091L56.7624 25.9903L55.8911 25.8517L55.6238 26.4259L55.3663 26.9903L55.1386 27.5546L54.9307 28.1388L54.7426 28.7229L54.6436 29.0596H66.9208L66.9505 28.7229Z" fill="#00AEEF"/>
<path d="M67.5249 24.8517L67.4159 25.4754L67.307 26.1091L67.208 26.7527L67.109 27.4061L67.0298 28.0596L66.9506 28.7229L66.9209 29.0596H79.1783L79.1387 28.7229L79.0694 28.0596L78.9803 27.4061L78.8912 26.7527L78.7922 26.1091L78.6833 25.4754L78.5645 24.8517L78.4457 24.2378L77.7526 24.0299L76.5942 23.7626L75.4259 23.5645L74.2377 23.4556L73.0496 23.416L71.8615 23.4556L70.6734 23.5645L69.5051 23.7626L68.3466 24.0299L67.6536 24.2279L67.5249 24.8517Z" fill="#00AEEF"/>
<path d="M71.6831 13.7128L72.3663 13.683L73.0494 13.6731L73.7326 13.683L74.4158 13.7128L75.0989 13.7722L75.7722 13.8415L73.0494 8.54443L70.3267 13.8415L70.9999 13.7722L71.6831 13.7128Z" fill="#00AEEF"/>
<path d="M66.6761 35.8979H53.9209V39.3169H66.6761V35.8979Z" fill="#D0ECF6"/>
<path d="M58.0592 24.4058L59.1285 24.4355L60.2077 24.4058L61.277 24.2969L62.3364 24.1286L63.3859 23.881L64.4156 23.5741L66.6433 22.7523L67.8909 22.3761L68.1087 22.3266L68.2275 21.8909L68.3859 21.3365L68.5641 20.8018L68.7324 20.2672L68.9206 19.7622L69.1087 19.2672L69.3067 18.782L69.5047 18.3167L69.7127 17.8711L69.9305 17.4454L70.1483 17.0296L70.3661 16.6434L70.5938 16.2672L70.8315 15.9107L71.0691 15.5741L71.1483 15.4751L70.5542 15.5444L69.9305 15.6335L69.3166 15.7424L68.7027 15.8711L68.0988 16.0197L67.4948 16.188L66.9008 16.3761L66.3067 16.584L65.7225 16.8117L65.1483 17.0593L64.5839 17.3167L64.0295 17.6038L63.4849 17.9008L62.9404 18.2177L62.4156 18.5444L61.9008 18.9008L61.3958 19.2672L60.9107 19.6434L60.4354 20.0494L59.9701 20.4553L59.5146 20.8909L59.079 21.3266L58.6631 21.782L58.2572 22.2573L57.8711 22.7325L57.4948 23.2276L57.1384 23.7325L56.8018 24.2573L56.9899 24.2969L58.0592 24.4058Z" fill="#D0ECF6"/>
<path d="M65.3268 41.7626L65.4853 42.0398L65.6239 42.3171L65.7427 42.6042L65.8516 42.9012L65.9407 43.1982L66.0001 43.5052L66.0496 43.8121L66.0793 44.1289L66.0892 44.4359H69.5645V41.02H64.7427L64.9605 41.2477L65.1486 41.5052L65.3268 41.7626Z" fill="#D0ECF6"/>
</g>
<defs>
<clipPath id="clip0_67_14373">
<rect width="93.926" height="200" fill="white"/>
</clipPath>
</defs>
</svg>

<svg width="94" height="200" viewBox="0 0 94 200" fill="none" xmlns="http://www.w3.org/2000/svg"><g clip-path="url(#clip0_67_14373)"><path d="M36.525 184.614h20.871v13.673H36.525v-13.673zM1.733 172.643h90.445v25.644H59.13v-13.673h19.137v-1.713H15.654v1.713h19.128v13.673H1.733v-25.644zm28.475-7.237l.653-.396.674-.376.673-.367.683-.336.683-.327.703-.317.703-.287.723-.277.713-.268.733-.237.732-.228.733-.208.742-.188.753-.178.752-.149.753-.138.752-.119.763-.099.713-.079.812-.07.772-.049.762-.02.772-.01.763.01.772.02.762.049.763.06.762.089.763.099.762.119.752.138.753.149.742.178.743.188.743.208.732.228.723.237.723.268.713.277.703.287.703.317.693.327.683.336.673.367.663.376.654.396.653.406H29.564l.644-.406zm15.94-6.426l-.811.03-.802.049-.812.07-.802.079-.802.109-.802.128-.792.139-.792.168-.792.179-.783.198-.782.227-.772.238-.762.248-.763.277-.752.297-.743.307-.742.326-.733.347-.713.366-.713.377-.703.396-.693.415-2.94 1.862H5.216v5.129H0V200h93.92v-29.059h-5.217v-5.129h-6.96v1.703h5.217v3.426H6.95v-3.426h57.406v-3.733l-.415-.247-.703-.396-.713-.377-.723-.366-.733-.347-.732-.326-.743-.307-.762-.297-.753-.277-.772-.248-.772-.238-.773-.227-.782-.198-.792-.179-.792-.168-.802-.139-.792-.128-.802-.109-.812-.079-.802-.07-.812-.049-.802-.03-.812-.01-.812.01z" fill="#3271B2"/><path d="M81.743 167.515H64.356v-3.733l.268.169 1.465.92v.941h15.654v1.703z" fill="#3271B2"/><path d="M62.614 49.564h20.872v5.13H62.612v-5.13zm-3.475-3.416H86.96v1.713H59.14V46.15zm6.94-2.02l-.03-.316-.049-.307-.06-.307-.088-.297-.11-.297-.118-.287-.139-.277-.158-.278-.178-.257-.189-.258-.207-.227h16.594l-.208.227-.188.258-.179.257-.158.278-.139.277-.119.287-.108.297-.09.297-.069.307-.04.307-.03.317-.01.307H66.09l-.01-.307zm-12.158-8.237h38.257v3.416H53.921V35.89zm0-2.327l.04-.614.049-.613.07-.604.088-.614.07-.357H91.86l.07.357.089.614.07.604.049.613.03.614.01.624H53.92v-.624zm6.406-7.455L61.505 26l1.178-.198 1.159-.267 1.138-.337 2.228-.832.445-.138.694-.198 1.158-.268 1.168-.198 1.188-.109 1.188-.04 1.189.04 1.188.11 1.168.197 1.159.268.693.198.445.138 2.228.832 1.138.337 1.159.267 1.178.198 1.178.109 1.188.04 1.189-.04L89.337 26l.861-.148.277.574.248.564.237.565.208.584.188.584.1.336H54.644l.099-.336.188-.584.208-.584.237-.565.248-.564.267-.565.871.139 1.179.109 1.198.04 1.188-.04zm-2.268-1.703l-1.069-.109-.198-.03.347-.534.356-.505.376-.495.386-.476.406-.475.416-.455.446-.436.445-.436.466-.405.475-.406.495-.377.495-.366.515-.356.535-.327.534-.317.545-.297.554-.287.564-.258.575-.247.584-.228.594-.208.594-.188.604-.168.604-.149.614-.128.614-.11.624-.088.593-.07.654-.06.624-.029.623-.01.624.01.624.03.624.05.624.079.623.089.614.109.614.128.604.149.604.168.594.188.594.208.574.228.575.247.574.258.554.287.545.297.534.317.535.327.515.356.495.366.495.377.475.405.466.406.445.436.436.436.426.455.406.475.386.476.376.495.356.505.337.524-.188.04-1.07.109-1.079.03-1.069-.03-1.07-.109-1.069-.168-1.04-.248-1.029-.307-2.228-.822-1.247-.376-.218-.05-1.05-.247-1.287-.208-1.297-.128-1.306-.04-1.307.04-1.297.128-1.288.208-1.05.248-.217.05-1.247.376-2.228.821-1.03.307-1.05.248-1.059.168-1.07.109-1.068.03-1.08-.03zM73.05 8.545l2.723 5.297-.673-.07-.683-.06-.683-.029-.684-.01-.683.01-.683.03-.683.06-.673.069 2.722-5.297zM72.18 0v6.446l-4 7.792-.535.128-.654.189-.653.207-.644.218-.634.248-.623.267-.614.287-.614.307-.594.327-.584.346-.575.367-.564.376-.544.406-.535.416-.525.435-.505.446-.495.465-.475.485-.456.495-.445.515-.426.525-.406.545-.386.544-.366.564-.357.585-.326.584-.317.594-.287.604-.278.624-.247.623-.228.634-.208.634-.188.643-.168.654-.149.653-.119.664-.099.663-.079.663-.06.674-.029.673-.01.673v6.832h8.634l.515.03.445.089.436.148.406.198.376.248.337.297.307.326.247.377.198.396.149.425.089.436.03.446h-6.951v5.128h3.475v6.842h3.485v107.376l.268.169 1.465.92V56.406h13.92v109.406h1.733V56.406h3.485v-6.842h3.475v-5.128h-6.95l.03-.446.088-.436.139-.425.208-.396.247-.377.297-.326.347-.297.376-.248.406-.198.436-.148.445-.09.505-.03h8.644v-6.83l-.01-.674-.03-.673-.06-.674-.078-.663-.1-.663-.118-.664-.149-.653-.168-.654-.188-.643-.208-.634-.228-.634-.247-.623-.278-.624-.287-.604-.317-.594-.326-.584-.357-.585-.366-.564-.396-.544-.406-.545-.416-.525-.445-.514-.456-.496-.475-.485-.495-.465-.505-.446-.525-.435-.535-.416-.544-.406-.564-.376-.575-.367-.584-.346-.594-.327-.614-.307-.614-.287-.623-.267-.634-.248-.644-.218-.653-.207-.654-.189-.534-.128-4-7.792V0h-1.743z" fill="#3271B2"/><path d="M69.574 165.812V63.248h6.95v102.564h-1.732V64.95h-3.485v100.862h-1.733z" fill="#3271B2"/><path d="M66.089 164.871l1.485.941h-1.485v-.941z" fill="#474B4A"/><path d="M1.733 172.644v25.643h27.832v-13.673H15.644v-1.713h13.92v-10.257H1.734zm29.575-5.123H6.957v3.419h24.351v-3.419z" fill="#D0ECF6"/><path d="M86.96 170.93v-3.415H62.614v3.415H86.96z" fill="#F5EFEB"/><path d="M69.574 63.247v-6.841h-3.485v42.732h3.485v-35.89zm-2 102.565h2V99.139h-3.485v65.732l1.485.941z" fill="#D0ECF6"/><path d="M59.138 184.615H36.526v13.675h22.612v-13.675z" fill="#00AEEF"/><path d="M68.705 49.573h-6.088V54.7h6.088v-5.128z" fill="#D0ECF6"/><path d="M86.968 46.154H78.27v1.71h8.697v-1.71z" fill="#E1DDD9"/><path d="M67.835 46.154h-8.697v1.71h8.697v-1.71z" fill="#D0ECF6"/><path d="M78.272 46.154H67.835v1.71h10.437v-1.71z" fill="#CECCCA"/><path d="M66.673 33.495l.02-.693.02-.683.03-.693.04-.664H54.237l-.07.357-.089.614-.069.604-.05.613-.04.614v.624h12.753v-.693z" fill="#D0ECF6"/><path d="M78.564 24.851l.119.624.109.634.099.643.089.644.09.663.068.664.04.336h12.277l-.099-.336-.188-.585-.218-.584-.228-.564-.247-.564-.267-.565-.872.129-1.188.119-1.188.04-1.188-.04-1.178-.12-1.178-.187-1.159-.267-1.138-.337-2.228-.832-.446-.139.12.624zM66.95 28.723l.08-.663.079-.664.099-.643.099-.644.109-.634.109-.623.128-.614-.445.128-2.228.832-1.138.337-1.159.267-1.178.188-1.178.12-1.198.039-1.188-.04-1.179-.119-.87-.138-.268.574-.258.564-.227.565-.208.584-.188.584-.1.337h12.278l.03-.337z" fill="#00AEEF"/><path d="M67.525 24.852l-.11.623-.108.634-.099.644-.099.653-.08.654-.078.663-.03.337h12.257l-.04-.337-.069-.663-.089-.654-.089-.653-.099-.644-.109-.634-.119-.623-.118-.614-.693-.208-1.159-.267-1.168-.199-1.188-.108-1.188-.04-1.188.04-1.189.108-1.168.199-1.158.267-.693.198-.13.624zm4.158-11.139l.683-.03.683-.01.684.01.683.03.683.06.673.069-2.723-5.298-2.722 5.297.673-.069.683-.06z" fill="#00AEEF"/><path d="M66.676 35.898H53.921v3.419h12.755v-3.42zM58.06 24.406l1.069.03 1.079-.03 1.069-.11 1.06-.167 1.049-.248 1.03-.307 2.227-.822 1.248-.376.218-.05.119-.435.158-.554.178-.535.168-.535.189-.505.188-.495.198-.485.198-.465.208-.446.218-.426.217-.415.218-.387.228-.376.238-.356.237-.337.08-.099-.595.07-.624.088-.613.11-.614.128-.604.149-.604.168-.594.188-.594.208-.585.228-.574.247-.564.258-.555.287-.544.297-.545.317-.524.326-.515.357-.505.366-.485.376-.476.406-.465.406-.455.436-.436.436-.416.455-.406.475-.386.476-.376.495-.357.505-.336.524.188.04 1.07.109zm7.267 17.357l.158.277.139.277.119.287.109.297.089.297.06.307.049.307.03.317.01.307h3.474V41.02h-4.821l.218.228.188.257.178.258z" fill="#D0ECF6"/></g><defs><clipPath id="clip0_67_14373"><rect width="93.926" height="200" fill="#fff"/></clipPath></defs></svg>
